!!!!SEGMENT: pl-wumfc--r255_paderewski-ignacy-jan--keyobard-piece.krn
!!!cenid: 18xx:3147
!!!COM: Paderewski, Ignacy Jan
!!!COM-rismid: pe30029943
!!!CDT: 1860/11/18-1941/06/29
!!!CNT: Polish
!!!OTL: [Keyboard piece]
!!!PDT:
!!!AGN:
!!!SMS-siglum: PL-Wumfc
!!!SMS-shelfmark: R255
!!!SMS-shelfwork: W
!!!SMS-variant:
!!!SMS-altvar:
!!!NIFC-rismid: 1001156116
!!!URL-scan: http://repozytorium.nifc.pl/skany/pl-wumfc--r255
!!!ONB-nifc:
!!!key: F
**kern	**dynam	**kern	**dynam
*group1	*	*group1	*
*part2	*part2	*part1	*part1
*staff2	*	*staff1	*
*I"[Piano]	*	*I"[Piano]	*
*Ipiano	*	*Ipiano	*
*ICklav	*	*ICklav	*
*clefF4	*	*clefG2	*
*k[b-]	*	*k[b-]	*
*d:	*	*d:	*
*M2/4	*	*M2/4	*
*kcancel	*	*kcancel	*
=1	=1	=1	=1
*Xtuplet	*	*Xtuplet	*
4DD\	.	8r	.
.	.	24f/LL 24a	.
.	.	24e/	.
.	.	24d/JJ	.
24c#X>\LL 24e>\	.	8rb	.
24Bn>\	.	.	.
24A>\JJ	.	.	.
8r	.	8B-X^</	.
=2	=2	=2	=2
4DD\	.	8r	.
.	.	24f/LL 24a/	.
.	.	24e/	.
.	.	24d/JJ	.
24B->\LL 24c#X>	.	8rb	.
24A>\	.	.	.
24G>\JJ	.	.	.
8r	.	8E</	.
=3	=3	=3	=3
4DD\ 4AA\	.	8F</	.
.	.	24F</LL 24d</	.
.	.	24G</	.
.	.	24A</JJ	.
24A\LL 24e\	.	8r	.
24Bn\	.	.	.
24c#X\JJ	.	.	.
8ryy	.	24d/LL 24f/	.
.	.	24c#X/	.
.	.	24d/JJ	.
=4	=4	=4	=4
8r	.	24f/LL 24a/	.
.	.	24e/	.
.	.	24d/JJ	.
8ryy	.	24b-\LL 24cc#X\	.
.	.	24a\	.
.	.	24g\JJ	.
8r	.	24f/LL 24dd/	.
.	.	24g/	.
.	.	24a/JJ	.
8r	.	24dd/LL 24ff/	.
.	.	24cc#X/	.
.	.	24dd/JJ	.
!!LO:LB:g=original
=5	=5	=5	=5
*	*	*^	*
4BB-\ 4F\	.	8a/ 8ff/ 8aa/	8ryy	.
.	.	4a/ 4ff/ 4aa/	24ff\LL	.
.	.	.	24ee\	.
.	.	.	24dd\JJ	.
8rdd>	.	.	24a\LL	.
.	.	.	24g\	.
.	.	.	24f\JJ	.
8B->\	.	8g#X/ 8ff/ 8gg#X/	24ff\LL	.
.	.	.	24ee\	.
.	.	.	24dd\JJ	.
*	*	*v	*v	*
=6	=6	=6	=6
!LO:N:xstem	!	!	!
8f>/ 8a>	.	24ff/LL 24aa/	.
.	.	24ee/	.
.	.	24dd/JJ	.
24a>\LL	.	8ff/	.
24g>\	.	.	.
24f>\JJ	.	.	.
8e-X>\	.	24a/LL 24cc#X/	.
.	.	24g/	.
.	.	24f/JJ	.
24d>\LL	.	8dd/	.
24c>\	.	.	.
24B->\JJ	.	.	.
=7	=7	=7	=7
*	*	*^	*
4FF\	.	24a/LL 24cc/	8ryy	.
.	.	24g/	.	.
.	.	24f/JJ	.	.
.	.	24c\LL 24f\	8rcc	.
.	.	24B-\	.	.
.	.	24A\JJ	.	.
4FF#X\	.	24cc/LL 24dd/	8r	.
.	.	24a/	.	.
.	.	24d/JJ	.	.
.	.	24e-X<\LL	8rb	.
.	.	24d<\	.	.
.	.	24D<\JJ	.	.
*	*	*v	*v	*
=8	=8	=8	=8
4GG\	.	8d/ 8b-/ 8dd/	.
.	.	24d/LL 24b- 24dd	.
.	.	24a/	.
.	.	24g/JJ	.
8ryy	.	24e-X\LL	.
.	.	24d\	.
.	.	24B-\JJ	.
8G>\	.	24e-/LL 24b-/ 24cc#X/	.
.	.	24a/	.
.	.	24g/JJ	.
=9	=9	=9	=9
*	*	*^	*
4GG\	.	24d/LL 24b-/ 24dd/	8ryy	.
.	.	24a/	.	.
.	.	24g/JJ	.	.
.	.	8g/ 8b-/	24e-X\LL	.
.	.	.	24d\	.
.	.	.	24c\JJ	.
8A>\	.	24e-/LL 24f#X/	4ryy	.
.	.	24d/	.	.
.	.	24c/JJ	.	.
24G\LL	.	8B-/ 8g/	.	.
24D\	.	.	.	.
24GG\JJ	.	.	.	.
*	*	*v	*v	*
!!LO:LB:g=original
=10	=10	=10	=10
4AAA\	.	8r	.
.	.	24g/LL 24b-/	.
.	.	24f/	.
.	.	24e/JJ	.
24c#X>/LL 24e>/	.	8rb	.
24Bn>\	.	.	.
24A>\JJ	.	.	.
8ryy	.	24B-</LL 24c#X</	.
.	.	24A</	.
.	.	24G</JJ	.
=11	=11	=11	=11
8ryy	.	24F</LL 24d</	.
.	.	24G</	.
.	.	24A</JJ	.
24A\LL 24e	.	8r	.
24Bn\	.	.	.
24c#X\JJ	.	.	.
8ryy	.	24d/LL 24f/	.
.	.	24c#X/	.
.	.	24d/JJ	.
24e>\LL 24f#X>\	.	8rb	.
24d>\	.	.	.
24c#>\JJ	.	.	.
=12	=12	=12	=12
8ryy	.	24B-/LL 24g/	.
.	.	24c/	.
.	.	24d/JJ	.
24e>\LL 24f#X>\	.	8r	.
24d>\	.	.	.
24c>\JJ	.	.	.
8ryy	.	24d/LL 24g/	.
.	.	24c/	.
.	.	24B-/JJ	.
8BB-\	.	24f#X/LL 24g/	.
.	.	24e/	.
.	.	24d/JJ	.
=13	=13	=13	=13
24AA\LL	.	8r	.
24C#X\	.	.	.
24E\	.	.	.
24A\	.	24c#X/LL 24a/	.
24Bn\	.	24d/	.
24c#X\JJ	.	24e/JJ	.
24A\LL	.	8r	.
24c#X\	.	.	.
24e\JJ	.	.	.
24a>\LL	.	24cc#X/LL 24aa/	.
24bn>\	.	24dd/	.
24cc#X>\JJ	.	24ee/JJ	.
=14	=14	=14	=14
*	*	*8va	*
24A>\LL	.	8r	.
24c#X>\	.	.	.
24e>\	.	.	.
24a>\	.	24ccc#X/LL 24aaa/	.
24bn>\	.	24ddd/	.
24cc#X>\JJ	.	24eee/JJ	.
4a>\	.	4aaa/ 4aaaa/	.
*	*	*X8va	*
!!LO:LB:g=original
=15	=15	=15	=15
4DD\	.	8r	.
.	.	24f/LL 24a/	.
.	.	24e/	.
.	.	24d/JJ	.
24c#X>\LL 24d>\	.	8rb	.
24Bn>\	.	.	.
24A>\JJ	.	.	.
8r	.	8A-X/	.
=16	=16	=16	=16
4DD\	.	8r	.
.	.	24f/LL 24a	.
.	.	24e/	.
.	.	24d/JJ	.
24B->\LL 24c#X>	.	8rb	.
24A>\	.	.	.
24G>\JJ	.	.	.
8r	.	8E</	.
=17	=17	=17	=17
4ryy	.	8F</	.
.	.	24F</LL 24d</	.
.	.	24G</	.
.	.	24A</JJ	.
24A/LL 24e/	.	8r	.
24Bn\	.	.	.
24c#X\JJ	.	.	.
8ryy	.	24d/LL 24f	.
.	.	24c#X/	.
.	.	24d/JJ	.
=18	=18	=18	=18
8r	.	24f/LL 24a/	.
.	.	24e/	.
.	.	24d/JJ	.
24A>\LL 24f>	.	8rb	.
24Bn>\	.	.	.
24c#X>\JJ	.	.	.
8ryy	.	24d/LL 24g/	.
.	.	24e-X/	.
.	.	24en/JJ	.
8f>\ 8a>	.	8rdd	.
=19	=19	=19	=19
4BB-\ 4F\	.	8r	.
.	.	24dd/LL 24ff/	.
.	.	24cc/	.
.	.	24b-/JJ	.
24a>\LL 24cc>\	.	8rdd	.
24g>\	.	.	.
24f>\JJ	.	.	.
8r	.	8g-X/	.
!!LO:LB:g=original
=20	=20	=20	=20
4BB-\ 4F\	.	8r	.
.	.	24dd/LL 24ff/	.
.	.	24cc/	.
.	.	24b-/JJ	.
24g-X>\LL 24a>	.	8rdd	.
24f>\	.	.	.
24e-X>\JJ	.	.	.
8r>	.	8c/	.
=21	=21	=21	=21
4BB-\ 4F\	.	8r	.
.	.	24d/LL 24b-/	.
.	.	24e-X/	.
.	.	24f/JJ	.
24f>\LL 24cc>	.	8rdd	.
24g>\	.	.	.
24a>\JJ	.	.	.
8r>	.	24b-/LL 24dd/	.
.	.	24a/	.
.	.	24b-/JJ	.
=22	=22	=22	=22
8r>	.	24dd/LL 24ff/	.
.	.	24cc/	.
.	.	24b-/JJ	.
24cc#X>\LL 24ee>\	.	8rdd	.
24ccn>\	.	.	.
24b->\JJ	.	.	.
8r>	.	24dd/LL 24ff/	.
.	.	24cc/	.
.	.	24b-/JJ	.
8BB-\ 8E	.	24ff/LL 24gg	.
.	.	24ee/	.
.	.	24dd/JJ	.
=23	=23	=23	=23
4AA\ 4E\	.	8cc#X/ 8aa/	.
.	.	24ccc#X/LL 24eee	.
.	.	24bbn/	.
.	.	24aa/JJ	.
24gg#X>/LL 24bbn>/	.	8reee	.
24ff#X>\	.	.	.
24ee>\JJ	.	.	.
8ryy	.	8ffn/	.
=24	=24	=24	=24
4AA\ 4E\	.	8r	.
.	.	24ccc#X/LL 24eee/	.
.	.	24bbn/	.
.	.	24aa/JJ	.
24gg#X>\LL	.	8reee	.
24ee>\	.	.	.
24dd>\JJ	.	.	.
8ryy	.	8bn/	.
!!LO:LB:g=original
=25	=25	=25	=25
!LO:N:vis=4	!	!	!
8AA\	.	24e/LL 24cc#X/	.
.	.	24f#X/	.
.	.	24g#X/JJ	.
24a>\LL 24ee>	.	8reee	.
24bn>\	.	.	.
24cc#X>\JJ	.	.	.
8ryy	.	24cc#/LL 24aa	.
.	.	24dd/	.
.	.	24ee/JJ	.
24gg#X>\LL 24bbn>	.	8reee	.
24ff#X>\	.	.	.
24ee>\JJ	.	.	.
=26	=26	=26	=26
8ryy	.	24aa/LL 24ccc#X/	.
.	.	24gg#X/	.
.	.	24ff#X/JJ	.
24ee>\LL	.	24gg#/LL 24eee/	.
24ff>\	.	24aa/	.
24gg>\JJ	.	24bbn/JJ	.
8ryy	.	24aa/LL 24ccc#/	.
.	.	24gg#/	.
.	.	24ff#/JJ	.
8EE\	.	24gg#/LL 24eee/	.
.	.	24aa/	.
.	.	24bb/JJ	.
=27	=27	=27	=27
*	*	*^	*
[<2AAA\	.	8aa/ 8ccc#X/	4.ryy	.
.	.	24ccc#/LL 24eee/	.	.
.	.	24bbn/	.	.
.	.	24aa/JJ	.	.
.	.	24ff/LL 24gg#X/	.	.
.	.	24ee/	.	.
.	.	24dd/JJ	.	.
.	.	8aa^>/	24cc#X/LL 24ee/	.
.	.	.	24bn/	.
.	.	.	24a/JJ	.
=28	=28	=28	=28	=28
2AAA\]	.	24cc#X/LL	4.ryy	.
.	.	24bn/	.	.
.	.	24a/JJ	.	.
.	.	24cc#/LL 24ee/	.	.
.	.	24b/	.	.
.	.	24a/JJ	.	.
.	.	24f/LL 24g#X/	.	.
.	.	24e/	.	.
.	.	24d/JJ	.	.
.	.	8a^>/	24c#X/LL 24e/	.
.	.	.	24Bn/	.
.	.	.	24A/JJ	.
*	*	*v	*v	*
=29	=29	=29	=29
!	!LO:DY:a	!	!
[<2AAA\	sfz	2r	.
!!LO:PB:g=original
=30	=30	=30	=30
*	*	*^	*
2AAA\_<	.	8r	4.ryy	.
.	.	24cc#X/LL 24ee/	.	.
.	.	24bn/	.	.
.	.	24a/JJ	.	.
.	.	24f#X/LL 24g/	.	.
.	.	24e/	.	.
.	.	24d/JJ	.	.
.	.	8a/	24c#X/LL 24e/	.
.	.	.	24Bn/	.
.	.	.	24A/JJ	.
=31	=31	=31	=31	=31
2AAA\_<	.	24c#X/LL	4.ryy	.
.	.	24B-/	.	.
.	.	24A/JJ	.	.
.	.	24c#/LL 24e/	.	.
.	.	24Bn/	.	.
.	.	24A/JJ	.	.
.	.	24F#X</LL 24G</	.	.
.	.	24E</	.	.
.	.	24D</JJ	.	.
.	.	8A<^>/	24C#X</LL 24E</	.
.	.	.	24BBn</	.
.	.	.	24AA</JJ	.
=32	=32	=32	=32	=32
2AAA\]	.	24F#X</LL 24G</	8ryy	.
.	.	24E</	.	.
.	.	24D</JJ	.	.
.	.	24C#X</LL 24E</	8A<^>/	.
.	.	24BBn</	.	.
.	.	24AA</JJ	.	.
.	.	24C#</LL 24F#X</ 24G</	8ryy	.
.	.	24E</	.	.
.	.	24D</JJ	.	.
.	.	24C#</LL 24E</	8A</	.
.	.	24BB</	.	.
.	.	24AA</JJ	.	.
*	*	*v	*v	*
=33	=33	=33	=33
2AAA\	.	4r	.
.	.	[>4AA</	.
=34	=34	=34	=34
*	*	*^	*
2ryy	.	2AA</]	4rb>	.
.	.	.	4a/	.
*	*	*v	*v	*
!!LO:LB:g=original
=35	=35	=35	=35
*^	*	*	*
8r	[<2FF\	.	4a/	.
!LO:TUP:a:problem:klamra łukowa	!	!	!	!
24e-X>\LL 24g>\	.	.	.	.
24d>\	.	.	.	.
24c>\JJ	.	.	.	.
8r	.	.	4ee-X/	.
!LO:TUP:a:problem:klamra łukowa	!	!	!	!
24g>\LL 24cc>\	.	.	.	.
24f>\	.	.	.	.
24e-X>\JJ	.	.	.	.
=36	=36	=36	=36	=36
8r	2FF\]	.	4gg/	.
!LO:TUP:a:problem:klamra łukowa	!	!	!	!
24g>\LL 24ee-X>	.	.	.	.
24dd>\	.	.	.	.
24cc>\JJ	.	.	.	.
8r	.	.	[>4bb-/	.
!LO:TUP:a:problem:klamra łukowa	!	!	!	!
24g>\LL 24cc>\	.	.	.	.
24f>\	.	.	.	.
24e-X>\JJ	.	.	.	.
=37	=37	=37	=37	=37
8r	2CC\	.	(<8bb-/L]	.
24B->\LL 24e-X>\	.	.	8ddd/J	.
24A>\	.	.	.	.
24G>\JJ	.	.	.	.
8r	.	.	8bb-/L	.
!LO:TUP:a:problem:klamra łukowa	!	!	!	!
24e->\LL 24b->	.	.	8gg/J)	.
24d>\	.	.	.	.
24c>\JJ	.	.	.	.
=38	=38	=38	=38	=38
8r	2FF\	.	8ee-X/L	.
24C/LL 24B-/	.	.	8g/	.
24D/	.	.	.	.
24E/JJ	.	.	.	.
8r	.	.	8a/	.
24F\LL 24e\	.	.	8dd/J	.
24G\	.	.	.	.
24A\JJ	.	.	.	.
=39	=39	=39	=39	=39
8r	[<2BBB-\	.	8b-/L	.
24d>\LL 24a>\	.	.	8dd/	.
24g>\	.	.	.	.
24f>\JJ	.	.	.	.
8r	.	.	8b-/	.
24B-\LL 24e\	.	.	8g/J	.
24A\	.	.	.	.
24G\JJ	.	.	.	.
!!LO:LB:g=original
=40	=40	=40	=40	=40
8r	2BBB-\]	.	4b-/	.
24F/LL 24d	.	.	.	.
24c/	.	.	.	.
24B-/JJ	.	.	.	.
8r	.	.	4f/	.
!LO:TUP:a:problem:klamra łukowa	!	!	!	!
24BB-/LL 24D 24B-	.	.	.	.
24C/	.	.	.	.
24BB-/JJ	.	.	.	.
=41	=41	=41	=41	=41
8r	[<2FF\	.	4a/	.
24e-X>\LL 24g>\	.	.	.	.
24d>\	.	.	.	.
24c>\JJ	.	.	.	.
8r	.	.	4ee-X/	.
24g>\LL 24cc>\	.	.	.	.
24f>\	.	.	.	.
24e->\JJ	.	.	.	.
=42	=42	=42	=42	=42
8r	2FF\]	.	4gg/	.
24g>\LL 24ee-X>\	.	.	.	.
24dd>\	.	.	.	.
24cc>\JJ	.	.	.	.
8r	.	.	[>4bb-/	.
24g>\LL 24cc>\	.	.	.	.
24f>\	.	.	.	.
24e>\JJ	.	.	.	.
=43	=43	=43	=43	=43
8r	[<2CC\	.	8bb-/L]	.
24en>\LL 24b->	.	.	8ddd/	.
24d>\	.	.	.	.
24c>\JJ	.	.	.	.
8r	.	.	8bb-/	.
24b->\LL 24dd>	.	.	8gg/J	.
24a>\	.	.	.	.
24g>\JJ	.	.	.	.
=44	=44	=44	=44	=44
8r	2CC\]	.	8bb-/L	.
24G/LL 24f/	.	.	8dd/	.
24A/	.	.	.	.
24B-/JJ	.	.	.	.
8r	.	.	8een/	.
24c>\LL 24b->	.	.	8aa/J	.
24d>\	.	.	.	.
24en>\JJ	.	.	.	.
!!LO:LB:g=original
=45	=45	=45	=45	=45
8r	[<2FF\	.	8ee-X/L	.
24e-X>\LL 24g>	.	.	8gg/	.
24d>\	.	.	.	.
24c>\JJ	.	.	.	.
8r	.	.	8ee-/	.
24e->\LL 24b->	.	.	8cc/J	.
24a>\	.	.	.	.
24g>\JJ	.	.	.	.
=46	=46	=46	=46	=46
8r	2FF\]	.	8ee-X/L	.
24C/LL 24B-/	.	.	8g/	.
24D/	.	.	.	.
24E-X/JJ	.	.	.	.
8r	.	.	8a/	.
24FF\LL 24A\	.	.	8cc/J	.
24G\	.	.	.	.
24F\JJ	.	.	.	.
=47	=47	=47	=47	=47
8e-X/L	4C\ 4e-\	.	8g\L 8ee-X\	.
8g/	.	.	8gg\	.
8e-/	4ryy	.	8ee-\	.
8c/J	.	.	8cc\J	.
*v	*v	*	*	*
=48	=48	=48	=48
*	*	*^	*
8e-X/L	.	8ee-X\L	4ryy	.
8G/J	.	8g\J	.	.
4F\	.	8a/L	4e\ 4a\	.
.	.	8dd/J	.	.
*	*	*v	*v	*
=49	=49	=49	=49
8BB-\L 8B-\	.	8d/L 8b-/	.
8d\	.	8dd/	.
8B-\	.	8b-/	.
8G\J	.	8g/J	.
!!LO:LB:g=original
=50	=50	=50	=50
*^	*	*^	*
4F\	8ryy	.	2f/	4ryy	.
.	8ryy	.	.	.	.
4FF\	8rD	.	.	4F/ 4c#X/	.
.	24A\LL	.	.	.	.
.	24G\	.	.	.	.
.	24F\JJ	.	.	.	.
*v	*v	*	*	*	*
*	*	*v	*v	*
=51	=51	=51	=51
4BB-\ 4B-\	.	4F/ 4d/ 4f/	.
8r	.	4F/ 4c#X/ 4f/	.
24AA\LL	.	.	.
24GG\	.	.	.
24FF\JJ	.	.	.
=52	=52	=52	=52
4BB-\	.	4F/ 4B-/ 4d/	.
4BB-\	.	4B-/	.
=53	=53	=53	=53
*^	*	*	*
8r	[<2BBB-\	.	4d/	.
24A-X/LL 24c/	.	.	.	.
24G/	.	.	.	.
24F/JJ	.	.	.	.
8r	.	.	4a-X/	.
24c>\LL 24f>\	.	.	.	.
24B->\	.	.	.	.
24A-X>\JJ	.	.	.	.
=54	=54	=54	=54	=54
8r	2BBB-\]	.	4cc/	.
24e-X>\LL 24a-X>\	.	.	.	.
24d>\	.	.	.	.
24c>\JJ	.	.	.	.
8r	.	.	[>4ee-X/	.
24c>\LL 24e->\	.	.	.	.
24B->\	.	.	.	.
24A-X>\JJ	.	.	.	.
!!LO:LB:g=original
=55	=55	=55	=55	=55
8r	2FF\	.	8ee-X/L]	.
24e>\LL 24g>\	.	.	8gg/	.
24d>\	.	.	.	.
24c>\JJ	.	.	.	.
8r	.	.	8ee-/	.
24A/LL 24e/	.	.	8cc/J	.
24G/	.	.	.	.
24F/JJ	.	.	.	.
=56	=56	=56	=56	=56
8r	2BBB-\	.	8a-X/L	.
24F/LL 24e/	.	.	8c/	.
24G/	.	.	.	.
24A-X/JJ	.	.	.	.
8r	.	.	8d/	.
24BB-/LL 24A-/	.	.	8g/J	.
24C/	.	.	.	.
24D/JJ	.	.	.	.
=57	=57	=57	=57	=57
8r	[<2EE-X\	.	8e-X/L	.
24G>\LL 24d>\	.	.	8g/	.
24c>\	.	.	.	.
24B->\JJ	.	.	.	.
8r	.	.	8e-/	.
24E/LL 24A-X/	.	.	8c/J	.
24D/	.	.	.	.
24C/JJ	.	.	.	.
=58	=58	=58	=58	=58
8r	2EE-\]	.	4e-X/	.
24BB-/LL 24G/	.	.	.	.
24F/	.	.	.	.
24E-X/JJ	.	.	.	.
8r	.	.	4B-/	.
24GG\LL 24E-\	.	.	.	.
24FF\	.	.	.	.
24EE-X\JJ	.	.	.	.
=59	=59	=59	=59	=59
8r	2EE-X\	.	8g/L	.
24BB-/LL 24G/	.	.	8b-/	.
24C/	.	.	.	.
24D/JJ	.	.	.	.
8r	.	.	8g/	.
24E-X/LL 24B-/	.	.	8d/J	.
24F/	.	.	.	.
24G/JJ	.	.	.	.
!!LO:PB:g=original
=60	=60	=60	=60	=60
8r	2AAA\	.	4g/	.
24En/LL 24B-/	.	.	.	.
24A/	.	.	.	.
24G/JJ	.	.	.	.
8r	.	.	4c#X/	.
24AA\LL 24G\	.	.	.	.
24F\	.	.	.	.
24E\JJ	.	.	.	.
*v	*v	*	*	*
=61	=61	=61	=61
4DD\	.	8d/	.
.	.	24f/LL 24a/	.
.	.	24e/	.
.	.	24d/JJ	.
24c#X>\LL 24e>\	.	8r	.
24Bn>\	.	.	.
24A>\JJ	.	.	.
8ryy	.	8B-X/	.
=62	=62	=62	=62
4DD\	.	8r	.
.	.	24f/LL 24a/	.
.	.	24e/	.
.	.	24d/JJ	.
24B->\LL 24c#X>	.	8rb	.
24A>\	.	.	.
24G>\JJ	.	.	.
8ryy	.	8E<^>/	.
=63	=63	=63	=63
!LO:N:xstem	!	!	!
4DD\ 4AA\	.	8F</	.
.	.	24F</LL 24d</	.
.	.	24G</	.
.	.	24A</JJ	.
24A\LL 24e\	.	8r	.
24Bn\	.	.	.
24c#X\JJ	.	.	.
8r>	.	24d/LL 24f/	.
.	.	24c#X/	.
.	.	24d/JJ	.
=64	=64	=64	=64
8D\L	.	24f/LL 24a/	.
.	.	24e/	.
.	.	24d/JJ	.
8C\	.	24f#X/LL 24a/	.
.	.	24e/	.
.	.	24d/JJ	.
8BB-\	.	8g/ 8b-	.
8AA\J	.	24a/LL 24cc/	.
.	.	24f#X/	.
.	.	24d/JJ	.
!!LO:LB:g=original
=65	=65	=65	=65
4GG\ 4D\	.	8r	.
.	.	24b-/LL 24dd/	.
.	.	24a/	.
.	.	24g/JJ	.
24f#X>\LL 24b->\	.	8rgg	.
24e>\	.	.	.
24d>\JJ	.	.	.
8r	.	8e-X^>/	.
=66	=66	=66	=66
4GG\ 4D\	.	8r	.
.	.	24b-/LL 24dd/	.
.	.	24a/	.
.	.	24g/JJ	.
24e-X>\LL 24f#X>\ 24a>\	.	8rff	.
24d>\	.	.	.
24c>\JJ	.	.	.
8A/	.	8rff	.
=67	=67	=67	=67
4GG\	.	8D</ 8B-</	.
.	.	24B-/LL 24g/	.
.	.	24c/	.
.	.	24d/JJ	.
24d>\LL 24b->\	.	8ryy	.
24e>\	.	.	.
24f#X>\JJ	.	.	.
8ryy	.	24g/LL 24b-/	.
.	.	24f#X/	.
.	.	24g/JJ	.
=68	=68	=68	=68
8rd>	.	24b-/LL 24dd/	.
.	.	24a/	.
.	.	24g/JJ	.
24ee-X>\LL 24ff#X>\	.	8rccc	.
24dd>\	.	.	.
24cc>\JJ	.	.	.
8rd>	.	24b-/LL 24gg/	.
.	.	24cc/	.
.	.	24dd/JJ	.
24ff#X>\LL 24aa>\	.	8rccc	.
24een>\	.	.	.
24dd>\JJ	.	.	.
=69	=69	=69	=69
*	*	*^	*
4EE\	.	24bb-/LL	4.ryy	.
.	.	24aa/	.	.
.	.	24gg/JJ	.	.
.	.	24bb-/LL 24ddd/	.	.
.	.	24aa/	.	.
.	.	24gg/JJ	.	.
4ryy	.	24b-/LL 24dd/	.	.
.	.	24a/	.	.
.	.	24g/JJ	.	.
.	.	8ee-X^>/	24b-/LL 24dd/	.
.	.	.	24a/	.
.	.	.	24g/JJ	.
!!LO:LB:g=original
=70	=70	=70	=70	=70
4EE\	.	24b-/LL	4.ryy	.
.	.	24a/	.	.
.	.	24g/JJ	.	.
.	.	24b-/LL 24dd/	.	.
.	.	24a/	.	.
.	.	24g/JJ	.	.
4ryy	.	24B-/LL 24d/	.	.
.	.	24A/	.	.
.	.	24G/JJ	.	.
.	.	8e-X^>/	24B-/LL 24d/	.
.	.	.	24A/	.
.	.	.	24G/JJ	.
*	*	*v	*v	*
=71	=71	=71	=71
4AAA\	.	24B-/LL	.
.	.	24A/	.
.	.	24G/JJ	.
.	.	24B-/LL 24d/	.
.	.	24A/	.
.	.	24G/JJ	.
24B->\LL 24d>\	.	[>4en^>/	.
24A>\	.	.	.
24G>\JJ	.	.	.
24B->\LL 24d>\	.	.	.
24A>\	.	.	.
24G>\JJ	.	.	.
=72	=72	=72	=72
*^	*	*	*
24B->\LL 24d>\	4AA\	.	4e/]	.
24A>\	.	.	.	.
24G>\JJ	.	.	.	.
24B->\LL 24d>\	.	.	.	.
24A>\	.	.	.	.
24G>\JJ	.	.	.	.
24B->\LL 24c#X>	4ryy	.	4f/	.
24A>\	.	.	.	.
24G>\JJ	.	.	.	.
24B->\LL 24c#>\	.	.	.	.
24A>\	.	.	.	.
24G>\JJ	.	.	.	.
*v	*v	*	*	*
=73	=73	=73	=73
4DD\	.	24F</LL 24d</	.
.	.	24G</	.
.	.	24A</JJ	.
.	.	24A<\LL 24e<\	.
.	.	24Bn<\	.
.	.	24c#X<\JJ	.
8ryy	.	24d/LL 24f/	.
.	.	24c#X/	.
.	.	24d/JJ	.
8BB-\	.	24f/LL 24g/	.
.	.	24e/	.
.	.	24d/JJ	.
=74	=74	=74	=74
8AA\	.	24d/LL 24a/	<
.	.	24c#X/	.
.	.	24Bn/JJ	.
24AA\LL	.	8c#/ 8a-X/	.
24E\	.	.	.
24A\JJ	.	.	.
4r	.	24c#/LL	.
.	.	24e/	.
.	.	24a-/JJ	.
.	.	24cc#y/LL	.
.	.	24ee/	.
.	.	24aaa/JJ	[[
!!LO:LB:g=original
=75	=75	=75	=75
4.D\	.	24A</LL 24f</	.
.	.	24Bn</	.
.	.	24c#X</JJ	.
.	.	24d\LL 24g\	.
.	.	24e-X\	.
.	.	24en\JJ	.
.	.	24f/LL 24a/	.
.	.	24e/	.
.	.	24f/JJ	.
8D-X\	.	24a/LL 24b-/	.
.	.	24g/	.
.	.	24f/JJ	.
=76	=76	=76	=76
8C\	.	24f/LL 24cc/	.
.	.	24e/	.
.	.	24d/JJ	.
24C\LL	.	8e/ 8cc/	.
24G\	.	.	.
24c\JJ	.	.	.
4ryy	.	24e/LL	.
.	.	24g/	.
.	.	24cc/JJ	.
.	.	24ee/LL	.
.	.	24gg/	.
*	*	*8va	*
.	.	24cccc/JJ	.
*	*	*X8va	*
=77	=77	=77	=77
*	*	*^	*
2FF\ 2C\	.	24aa/LL 24ccc/	4.ryy	pp
.	.	24gg/	.	.
.	.	24ff/JJ	.	.
.	.	24ee/LL 24gg/	.	.
.	.	24dd/	.	.
.	.	24cc/JJ	.	.
.	.	24b-^>/LL 24cc/	.	.
.	.	24a/	.	.
.	.	24g/JJ	.	.
.	.	8dd-X^>/	24e/LL 24g/	.
.	.	.	24d/	.
.	.	.	24c/JJ	.
=78	=78	=78	=78	=78
2FF\ 2C\	.	24a/LL 24cc/	4.ryy	.
.	.	24g/	.	.
.	.	24f/JJ	.	.
.	.	24e/LL 24g/	.	.
.	.	24d/	.	.
.	.	24c/JJ	.	.
.	.	24B-/LL 24d/	.	.
.	.	24A/	.	.
.	.	24G/JJ	.	.
.	.	8d-X/	24E</LL 24G</	.
.	.	.	24D</	.
.	.	.	24C</JJ	.
*	*	*v	*v	*
=79	=79	=79	=79
8FF\L	.	24F</LL 24A</	.
.	.	24B-</	.
.	.	24c</JJ	.
8BB-\	.	24F</LL 24d</	.
.	.	24e</	.
.	.	24f</JJ	.
8AA\	.	24c\LL 24f\	.
.	.	24g\	.
.	.	24a\JJ	.
8GG\J	.	24d/LL 24b-/	.
.	.	24cc/	.
.	.	24dd/JJ	.
!!LO:LB:g=original
=80	=80	=80	=80
4CC\ 4C\	.	24e/LL 24ee/	.
.	.	24ff/	.
.	.	24gg/JJ	.
.	.	24ee\LL 24bb-\	.
.	.	24dd\	.
.	.	24cc\JJ	.
8ryy	.	24e/LL 24b-/	.
.	.	24d/	.
.	.	24c/JJ	.
24E\LL 24B-\	.	8ryy	.
24D\	.	.	.
24C\JJ	.	.	.
=81	=81	=81	=81
[<2FF\ [>2C\	.	24aa/LL 24ccc/	.
.	.	24gg/	.
.	.	24ff/JJ	.
.	.	24ee/LL 24gg/	.
.	.	24dd/	.
.	.	24cc/JJ	.
.	.	24b-^>/LL 24cc/	.
.	.	24a/	.
.	.	24g/JJ	.
.	.	24e/LL 24g/	.
.	.	24e/	.
.	.	24c/JJ	.
=82	=82	=82	=82
2FF\] 2C\]	.	24a/LL 24cc/	.
.	.	24g/	.
.	.	24f/JJ	.
.	.	24e/LL 24g/	.
.	.	24d/	.
.	.	24c/JJ	.
.	.	24B-^>/LL 24c/	.
.	.	24A/	.
.	.	24G/JJ	.
.	.	24E/LL 24G/	.
.	.	24D/	.
.	.	24C/JJ	.
=83	=83	=83	=83
8FF\L	.	24c/LL 24f/	.
.	.	24g/	.
.	.	24a/JJ	.
8BB-\	.	24d/LL 24b-/	.
.	.	24cc/	.
.	.	24dd/JJ	.
8AA\	.	24e/LL 24cc#X/	.
.	.	24dd/	.
.	.	24ee/JJ	.
8D\J	.	24f/LL 24dd/	.
.	.	24ee/	.
.	.	24ff/JJ	.
=84	=84	=84	=84
[<2AAA\	.	24g\LL 24ee\	.
.	.	24ff\	.
.	.	24gg\JJ	.
*	*	*8va	*
.	.	24bbb-/LL 24eeee/	.
.	.	24aaa/	.
.	.	24ggg/JJ	.
*	*	*X8va	*
.	.	24bb-\LL 24eee\	.
.	.	24aa\	.
.	.	24gg\JJ	.
.	.	24b-/LL 24ee/	.
.	.	24a/	.
.	.	24g/JJ	.
!!LO:LB:g=original
=85	=85	=85	=85
2AAA\_<	.	24e\LL 24cc#X\	.
.	.	24dd\	.
.	.	24ee\JJ	.
.	.	24eee/LL 24aaa/	.
.	.	24ddd/	.
.	.	24ccc#X/JJ	.
.	.	24ee/LL 24aa/	.
.	.	24dd/	.
.	.	24cc#X/JJ	.
.	.	24e\LL 24b-\	.
.	.	24d\	.
.	.	24c#X\JJ	.
=86	=86	=86	=86
2AAA\_<	.	24G\LL 24e\	.
.	.	24f/	.
.	.	24g/JJ	.
.	.	24bb-\LL 24eee	.
.	.	24aa\	.
.	.	24gg\JJ	.
.	.	24b-/LL 24ee/	.
.	.	24a/	.
.	.	24g/JJ	.
.	.	24B-\LL 24e\	.
.	.	24A\	.
.	.	24G\JJ	.
=87	=87	=87	=87
2AAA\]	.	24E</LL 24c#X</	.
.	.	24d</	.
.	.	24e</JJ	.
.	.	24ee/LL 24aa/	.
.	.	24dd/	.
.	.	24cc#X/JJ	.
.	.	24e\LL 24a\	.
.	.	24d\	.
.	.	24c#X\JJ	.
.	.	24e/LL 24a/	.
.	.	24d/	.
.	.	24c#X/JJ	.
=88	=88	=88	=88
2ryy	.	24A\LL 24e\	.
.	.	24Bn\	.
.	.	24c#X\JJ	.
.	.	24c#/LL 24a/	.
.	.	24d/	.
.	.	24e/JJ	.
.	.	24A\LL 24e\	.
.	.	24B\	.
.	.	24c#\JJ	.
.	.	24c#/LL 24a/	.
.	.	24d/	.
.	.	24e/JJ	.
=89	=89	=89	=89
24A>\LL 24e>\	.	8rb	.
24Bn>\	.	.	.
24c#X>\JJ	.	.	.
4.ryy	.	24c#X/LL 24a/	.
.	.	24d/	.
.	.	24e/JJ	.
.	.	24e\LL 24cc#X\	.
.	.	24f#X\	.
.	.	24g\JJ	.
.	.	24g/LL 24ee/	.
.	.	24a/	.
.	.	24b-/JJ	.
!!LO:PB:g=original
=90||	=90||	=90||	=90||
*k[f#c#]	*	*k[f#c#]	*
2ryy	.	24a\LL 24ee\	<
.	.	24b\	.
.	.	24cc#\JJ	.
.	.	24cc#/LL 24aa/	.
.	.	24dd/	.
.	.	24ee/JJ	.
.	.	24ee\LL 24ccc#\	.
.	.	24ff#\	.
.	.	24gg\JJ	.
.	.	24gg/LL 24eee/	.
.	.	24aa/	.
.	.	24bb/JJ	[[
=91	=91	=91	=91
2ryy	.	24aa\LL	.
.	.	24bb\	.
.	.	24ccc#\JJ	.
.	.	24ccc#/LL	.
.	.	24ddd/	.
.	.	24eee/JJ	.
.	.	24aa\LL	>
.	.	24bb\	.
.	.	24ccc#\JJ	.
.	.	24ccc#/LL	.
.	.	24ddd/	.
.	.	24eee/JJ	.
=92	=92	=92	=92
2ryy	.	24aa\LL	.
.	.	24bb\	.
.	.	24ccc#\JJ	.
.	.	24ccc#/LL	.
.	.	24ddd/	.
.	.	24eee/JJ	.
.	.	24ccc#\LL	]
.	.	24ddd\	.
.	.	24eee\JJ	.
.	.	24eee/LL	.
.	.	24fff#/	.
.	.	24ggg/JJ	.
=93	=93	=93	=93
*	*	*^	*
2DD\ 2AA	.	24ddd^>/LL 24fff#/	4.ryy	.
.	.	24eee/	.	.
.	.	24ddd/JJ	.	.
.	.	24ccc#/LL 24eee/	.	.
.	.	24bb/	.	.
.	.	24aa/JJ	.	.
.	.	24gg^>/LL 24aa	.	.
.	.	24ff#/	.	.
.	.	24ee/JJ	.	.
.	.	8bb/	24cc#^>/LL 24ee/	.
.	.	.	24b/	.
.	.	.	24a/JJ	.
!!LO:LB:g=original
=94	=94	=94	=94	=94
2DD\ 2AA\	.	24ff#/LL 24aa/	4.ryy	.
.	.	24ee/	.	.
.	.	24dd/JJ	.	.
.	.	24cc#/LL 24ee/	.	.
.	.	24b/	.	.
.	.	24a/JJ	.	.
.	.	24g/LL 24a/	.	.
.	.	24f#/	.	.
.	.	24e/JJ	.	.
.	.	8b/	24c#/LL 24e/	.
.	.	.	24B/	.
.	.	.	24A/JJ	.
*	*	*v	*v	*
=95	=95	=95	=95
!LO:TX:a:t=|:problem	!	!	!
8DD\L	.	24D</LL 24F#</	.
.	.	24G</	.
.	.	24A</JJ	.
!LO:TX:a:t=|:problem	!	!	!
8GG\	.	24D</LL 24B</	.
.	.	24c#</	.
.	.	24d</JJ	.
!LO:TX:a:t=|:problem	!	!	!
8FF#\	.	24A/LL 24d/	.
.	.	24e/	.
.	.	24f#/JJ	.
!LO:TX:a:t=|:problem	!	!	!
8EE\J	.	24B/LL 24g/	.
.	.	24a/	.
.	.	24b/JJ	.
=96	=96	=96	=96
*^	*	*	*
4AA/	8AAA\	.	24c#/LL 24cc#/	.
.	.	.	24dd/	.
.	.	.	24ee/JJ	.
.	4.ryy	.	24ccc#/LL 24ggg/	.
.	.	.	24bb/	.
.	.	.	24aa/JJ	.
4ryy	.	.	24cc#\LL 24gg\	.
.	.	.	24b\	.
.	.	.	24a\JJ	.
.	.	.	24c#/LL 24g/	.
.	.	.	24B/	.
.	.	.	24A/JJ	.
*v	*v	*	*	*
=97	=97	=97	=97
[<2DD\ [>2AA\	.	24fff#/LL 24aaa/	.
.	.	24eee/	.
.	.	24ddd/JJ	.
.	.	24ccc#/LL 24eee/	.
.	.	24bb/	.
.	.	24aa/JJ	.
.	.	24gg^>/LL 24aa/	.
.	.	24ff#/	.
.	.	24ee/JJ	.
.	.	24cc#/LL 24ee/	.
.	.	24b/	.
.	.	24a/JJ	.
=98	=98	=98	=98
2DD\] 2AA\]	.	24ff#/LL 24aa/	.
.	.	24ee/	.
.	.	24dd/JJ	.
.	.	24cc#/LL 24ee/	.
.	.	24b/	.
.	.	24a/JJ	.
.	.	24g/LL 24a/	.
.	.	24f#/	.
.	.	24e/JJ	.
.	.	24c#/LL 24e/	.
.	.	24B/	.
.	.	24B/JJ	.
!!LO:LB:g=original
=99	=99	=99	=99
!LO:TX:a:t=|:problem	!	!	!
8DD\L	.	24A/LL 24f#/	.
.	.	24g/	.
.	.	24a/JJ	.
!LO:TX:a:t=|:problem	!	!	!
8GG\	.	24d/LL 24b/	.
.	.	24cc#/	.
.	.	24dd/JJ	.
!LO:TX:a:t=|:problem	!	!	!
8D\	.	24f#/LL 24dd/	.
.	.	24ee/	.
.	.	24ff#/JJ	.
!LO:TX:a:t=|:problem	!	!	!
8C#\J	.	24b/LL 24gg/	.
.	.	24aa/	.
.	.	24bb/JJ	.
=100	=100	=100	=100
4FF#\	.	24a#X/LL 24aa#X/	.
.	.	24bb/	.
.	.	24ccc#/JJ	.
.	.	24ccc#/LL 24fff#/	.
.	.	24bb/	.
.	.	24aa#/JJ	.
4ryy	.	24cc#/LL 24ff#/	.
.	.	24b/	.
.	.	24a#X/JJ	.
.	.	24c#/LL 24f#/	.
.	.	24B/	.
.	.	24A#X/JJ	.
=101	=101	=101	=101
!LO:TX:t=P:problem:skreślenia	!	!	!
8BB\L	.	24f#/LL 24dd/	.
.	.	24ee/	.
.	.	24ff#/JJ	.
8E\	.	24b/LL 24gg/	.
.	.	24aa/	.
.	.	24bb/JJ	.
8B\	.	24dd/LL 24bb/	.
.	.	24ccc#/	.
.	.	24ddd/JJ	.
8E\J	.	24dd/LL 24ddd/	.
.	.	24ccc#/	.
.	.	24bb/JJ	.
=102	=102	=102	=102
8AA\ 8A\	.	24cc#/LL 24ccc#/	.
.	.	24ddd/	.
.	.	24eee/JJ	.
4.ryy	.	24ccc#/LL 24ggg/	.
.	.	24bb/	.
.	.	24aa/JJ	.
.	.	24cc#\LL 24gg\	.
.	.	24b\	.
.	.	24a\JJ	.
.	.	24c#/LL 24g/	.
.	.	24B/	.
.	.	24A/JJ	.
=103	=103	=103	=103
2ryy	.	24d/LL 24b/	.
.	.	24cc#/	.
.	.	24dd/JJ	.
.	.	24ddd\LL 24fff#\	.
.	.	24ccc#\	.
.	.	24bb\JJ	.
.	.	24dd/LL 24ff#/	.
.	.	24cc#/	.
.	.	24b/JJ	.
.	.	24d\LL 24f#\	.
.	.	24c#\	.
.	.	24B\JJ	.
!!LO:LB:g=original
=104	=104	=104	=104
2ryy	.	24B/LL 24g#X/	.
.	.	24a/	.
.	.	24b/JJ	.
.	.	24bb/LL 24ddd/	.
.	.	24aa/	.
.	.	24gg#X/JJ	.
.	.	24b/LL 24dd/	.
.	.	24a/	.
.	.	24g#/JJ	.
.	.	24g#\LL	.
.	.	24a\	.
.	.	24b\JJ	.
=105	=105	=105	=105
2ryy	.	24cc#\LL 24ccc#\	.
.	.	24dd\	.
.	.	24dd#X\JJ	.
.	.	24ee/LL 24ccc#/	.
.	.	24ee#X/	.
.	.	24ff#/JJ	.
.	.	24cc#\LL 24ccc#\	.
.	.	24dd#\	.
.	.	24ee#\JJ	.
.	.	24ee#X/LL 24ddd/	.
.	.	24ff#/	.
.	.	24ff#X/JJ	.
=106	=106	=106	=106
*^	*	*	*
8ee>\L	8rB	.	24gg#X/LL 24ccc#/	.
.	.	.	24ff#/	.
.	.	.	24ee/JJ	.
8e>\	4.ryy	.	24gg#/LL 24ccc#/	.
.	.	.	24ff#/	.
.	.	.	24ee/JJ	.
8d>\	.	.	24gg#/LL 24bb/	.
.	.	.	24ff#/	.
.	.	.	24ee/JJ	.
16c#>\L	.	.	24gg#/LL 24bb/	.
.	.	.	24ff#/	.
16B>\JJ	.	.	.	.
.	.	.	24ee/JJ	.
*v	*v	*	*	*
=107	=107	=107	=107
!	!	!LO:TUP:b:problem:klamra łukowa	!
8A\	.	24cc#/LL 24aa/	.
.	.	24dd/	.
.	.	24ee/JJ	.
4.ryy	.	24cc#\LL	.
.	.	24a\	.
.	.	24e\JJ	.
!	!	!LO:TUP:b:problem:klamra łukowa	!
.	.	24c#/LL 24a/	.
.	.	24d/	.
.	.	24e/JJ	.
.	.	24c#\LL	.
.	.	24A\	.
.	.	24E\JJ	.
=108	=108	=108	=108
!LO:TUP:a:problem:klamra łukowa	!	!	!
24C#/LL 24A/	.	2rF<	.
24D/	.	.	.
24E/JJ	.	.	.
!LO:TUP:a:problem:klamra łukowa	!	!	!
24C#\LL	.	.	.
24AA\	.	.	.
24EE\JJ	.	.	.
[<4AAA\	.	.	.
!!LO:LB:g=original
=109	=109	=109	=109
!	!	!LO:TX:b:t=lento	!
2AAA\]	.	4r	.
.	.	4a/	.
=110	=110	=110	=110
*^	*	*	*
!	!	!	!LO:TX:a:t=Un poco accelerando	!
8rf>	[<2AA\	.	4cc#/	.
24g>\LL 24b>\	.	.	.	.
24f#>\	.	.	.	.
24e>\JJ	.	.	.	.
8rf>	.	.	4gg/	.
24b>\LL 24ee>\	.	.	.	.
24a>\	.	.	.	.
24g>\JJ	.	.	.	.
=111	=111	=111	=111	=111
8rf>	2AA\]	.	4bb/	.
24g>\LL 24gg>\	.	.	.	.
24ff#>\	.	.	.	.
24ee>\JJ	.	.	.	.
8rf>	.	.	[>4ddd/	.
24g>\LL 24b>\	.	.	.	.
24f#>\	.	.	.	.
24e>\JJ	.	.	.	.
=112	=112	=112	=112	=112
8rf>	2EE\	.	8ddd/L]	.
24d>\LL 24g>\	.	.	8fff#/	.
24c#>\	.	.	.	.
24B>\JJ	.	.	.	.
8rf>	.	.	8ddd/	.
24g>\LL 24dd>\	.	.	8bb/J	.
24f#>\	.	.	.	.
24e>\JJ	.	.	.	.
=113	=113	=113	=113	=113
8rd>	2AA\	.	8gg/L	.
24E/LL 24d/	.	.	8b/	.
24F#/	.	.	.	.
24G/JJ	.	.	.	.
8rd>	.	.	8cc#/	.
24A>\LL 24g>\	.	.	8ff#/J	.
24B>\	.	.	.	.
24c#>\JJ	.	.	.	.
!!LO:LB:g=original
=114	=114	=114	=114	=114
8re>	[<2DD\	.	8dd/L	.
24f#>\LL 24cc#>\	.	.	8ff#/	.
24b>\	.	.	.	.
24a>\JJ	.	.	.	.
8re>	.	.	8dd/	.
24d>\LL 24g>\	.	.	8b/J	.
24c#>\	.	.	.	.
24B>\JJ	.	.	.	.
=115	=115	=115	=115	=115
8re>	2DD\]	.	4dd/	.
24A>\LL 24f#>\	.	.	.	.
24e>\	.	.	.	.
24d>\JJ	.	.	.	.
8re>	.	.	4a/	.
24F#/LL 24d/	.	.	.	.
24E/	.	.	.	.
24D/JJ	.	.	.	.
=116	=116	=116	=116	=116
8re>	[<2AA\	.	4cc#/	.
24g>\LL 24b>\	.	.	.	.
24f#>\	.	.	.	.
24e>\JJ	.	.	.	.
8re>	.	.	4gg/	.
24b>\LL 24ee>\	.	.	.	.
24a>\	.	.	.	.
24g>\JJ	.	.	.	.
=117	=117	=117	=117	=117
8re>	2AA\]	.	4bb/	.
24b>\LL 24gg>\	.	.	.	.
24ff#>\	.	.	.	.
24ee>\JJ	.	.	.	.
8re>	.	.	[>4ddd/	.
24g>\LL 24ee>\	.	.	.	.
24f#>\	.	.	.	.
24e>\JJ	.	.	.	.
=118	=118	=118	=118	=118
8re>	[<2EE\	.	8ddd/L]	.
24g#X\LL 24dd\	.	.	8fff#/	.
24f#\	.	.	.	.
24e\JJ	.	.	.	.
8re>	.	.	8ddd/	.
24a\LL 24gg#X	.	.	8bb/J	.
24ff#\	.	.	.	.
24ee\JJ	.	.	.	.
!!LO:PB:g=original
=119	=119	=119	=119	=119
8rf>	2EE\]	.	8ddd/L	.
24B>\LL 24a>\	.	.	8ff#/	.
24c#>\	.	.	.	.
24d>\JJ	.	.	.	.
8rf>	.	.	8gg#X/	.
24e>\LL 24dd>\	.	.	8ccc#/J	.
24f#>\	.	.	.	.
24g#X>\JJ	.	.	.	.
=120	=120	=120	=120	=120
8r	[<2AA\	.	8ggn/L	.
24gn>\LL 24b>\	.	.	8bb/	.
24f#>\	.	.	.	.
24e>\JJ	.	.	.	.
8r	.	.	8gg/	.
24g>\LL 24dd>\	.	.	8ee/J	.
24cc#>\	.	.	.	.
24b>\JJ	.	.	.	.
=121	=121	=121	=121	=121
8r	2AA\]	.	8gg/L	.
24E/LL 24d/	.	.	8b/	.
24F#/	.	.	.	.
24G/JJ	.	.	.	.
8r	.	.	8cc#/	.
24AA\LL 24c#\	.	.	8ee/J	.
24B\	.	.	.	.
24A\JJ	.	.	.	.
=122	=122	=122	=122	=122
8g>\L	2E\	.	8gg/L	.
8b>\	.	.	8bb/	.
8g>\	.	.	8gg/	.
8e>\J	.	.	8ee/J	.
*v	*v	*	*	*
=123	=123	=123	=123
*	*	*^	*
8g/L	.	8gg/L	4ryy	.
8B/J	.	8b/	.	.
4A\	.	8cc#/	4g\ 4cc#\	.
.	.	8ff#/J	.	.
*	*	*v	*v	*
!!LO:LB:g=original
=124	=124	=124	=124
*^	*	*	*
8d/L	2D\	.	8f#/L 8dd/	.
8f#/	.	.	8ff#/	.
8d/	.	.	8dd/	.
8B/J	.	.	8b/J	.
=125	=125	=125	=125	=125
4A\	4ryy	.	2a/	.
8r	4AA\	.	.	.
24c#\LL	.	.	.	.
24B\	.	.	.	.
24A\JJ	.	.	.	.
*v	*v	*	*	*
=126	=126	=126	=126
4D\ 4d\	.	4A/ 4f#/	.
8r	.	4G/ 4A/ 4e#X/	.
24C#\LL	.	.	.
24BB\	.	.	.
24AA\JJ	.	.	.
=127	=127	=127	=127
4D\	.	4F#/ 4A/ 4d/ 4f#/	.
4F#\	.	4f#/	.
=128	=128	=128	=128
*^	*	*	*
8r	[<2FF#\	.	4a#X/	.
24e>\LL 24g>\	.	.	.	.
24d>\	.	.	.	.
24c#>\JJ	.	.	.	.
8r	.	.	4ee/	.
24g>\LL 24a#X>\	.	.	.	.
24f#>\	.	.	.	.
24e>\JJ	.	.	.	.
!!LO:LB:g=original
=129	=129	=129	=129	=129
8r	2FF#\]	.	4gg/	.
24g>\LL 24ee>\	.	.	.	.
24dd>\	.	.	.	.
24cc#>\JJ	.	.	.	.
8r	.	.	[>4bb/	.
24g>\LL 24b>\	.	.	.	.
24f#>\	.	.	.	.
24e>\JJ	.	.	.	.
=130	=130	=130	=130	=130
8r	2CC#\	.	8bb/L]	.
24B>\LL 24e>\	.	.	8ddd/	.
24A>\	.	.	.	.
24G>\JJ	.	.	.	.
8r	.	.	8bb/	.
24e>\LL 24b>\	.	.	8gg/J	.
24d>\	.	.	.	.
24c#>\JJ	.	.	.	.
=131	=131	=131	=131	=131
8r	2FF#\	.	8ee/L	.
24C#/LL 24B/	.	.	8b/	.
24D/	.	.	.	.
24E/JJ	.	.	.	.
8r	.	.	8cc#/	.
24F#/LL 24e/	.	.	8dd/J	.
24G#X/	.	.	.	.
24A#X/JJ	.	.	.	.
=132	=132	=132	=132	=132
8r	2BBB\ 2BB	.	8b/L	.
24c#>\LL 24f#>\	.	.	8dd/	.
24e>\	.	.	.	.
24d>\JJ	.	.	.	.
8r	.	.	8b/	.
24B>\LL 24e>\	.	.	8g/J	.
24A>\	.	.	.	.
24G>\JJ	.	.	.	.
=133	=133	=133	=133	=133
8r	2BB\	.	4b/	.
24F#/LL 24d/	.	.	.	.
24c#/	.	.	.	.
24B/JJ	.	.	.	.
8r	.	.	[>4f#/	.
24D\LL	.	.	.	.
24C#\	.	.	.	.
24BB\JJ	.	.	.	.
!!LO:LB:g=original
=134	=134	=134	=134	=134
8r	[<2BB-X\	.	4f#/]	.
24B-X>\LL 24e-X>\	.	.	.	.
24d>\	.	.	.	.
24c#>\JJ	.	.	.	.
8r	.	.	4g/	.
24B->\LL 24d>\	.	.	.	.
24A>\	.	.	.	.
24G>\JJ	.	.	.	.
=135	=135	=135	=135	=135
8r	2BB-\]	.	4dd/	.
24d>\LL 24b-X>\	.	.	.	.
24a>/	.	.	.	.
24g>\JJ	.	.	.	.
8r	.	.	[>4gg/	.
24d>\LL 24g>\	.	.	.	.
24c#>\	.	.	.	.
24B-X>\JJ	.	.	.	.
=136	=136	=136	=136	=136
8r	[<2BB-X\	.	8gg/L]	.
24B-X>\LL 24g>\	.	.	8ddd/	.
24c#>\	.	.	.	.
24d>\JJ	.	.	.	.
8r	.	.	8bb-X/	.
24c#>\LL 24e-X>\	.	.	8ff#/J	.
24B->\	.	.	.	.
24A>\JJ	.	.	.	.
=137	=137	=137	=137	=137
8r	2BB-\]	.	8ccc#/L	.
24B>\LL 24d>\	.	.	8gg/	.
24A>\	.	.	.	.
24G>\JJ	.	.	.	.
8r	.	.	8dd/	.
24C#/LL 24G/	.	.	8a/J	.
24BBn/	.	.	.	.
24AA/JJ	.	.	.	.
=138	=138	=138	=138	=138
8r	2GG\	.	8b-X/L	.
24D/LL 24c#/	.	.	8dd/	.
24E/	.	.	.	.
24F#/JJ	.	.	.	.
8r	.	.	8b-/	.
24G/LL 24d/	.	.	8g/J	.
24A/	.	.	.	.
24B-X/JJ	.	.	.	.
*v	*v	*	*	*
!!LO:LB:g=original
=139||	=139||	=139||	=139||
*k[b-]	*	*k[b-]	*
*^	*	*	*
8r	2EE-X\	.	4b-/	.
24G>\LL 24e-X>\	.	.	.	.
24f>\	.	.	.	.
24g>\JJ	.	.	.	.
8r	.	.	[<4B-/	.
24E-X/LL	.	.	.	.
24F/	.	.	.	.
24G/JJ	.	.	.	.
=140	=140	=140	=140	=140
8r	2EEn\	.	8B-/L]	.
24BB-/LL 24G/	.	.	8dd/	.
24D/	.	.	.	.
24D/JJ	.	.	.	.
8r	.	.	8b-/	.
24E/LL 24B-/	.	.	8g/J	.
24F#X/	.	.	.	.
24G/JJ	.	.	.	.
=141	=141	=141	=141	=141
8r	2AAA\	.	4b-/	.
24E\LL 24B-\	.	.	.	.
24A\	.	.	.	.
24G\JJ	.	.	.	.
8r	.	.	4c#X/	.
24AA/LL 24G/	.	.	.	.
24F/	.	.	.	.
24E/JJ	.	.	.	.
*v	*v	*	*	*
=142	=142	=142	=142
*8ba	*	*	*
*^	*	*	*
4ryy	2DDD\	.	8d/	.
.	.	.	24A/LL 24f/ 24a/	ff
.	.	.	24e/	.
.	.	.	24d/JJ	.
*X8ba	*	*	*	*
24c#X>\LL 24e>\	.	.	8rb	.
24Bn>\	.	.	.	.
24A>\JJ	.	.	.	.
8BB-X/ 8B-X>/	.	.	8r	.
*v	*v	*	*	*
=143	=143	=143	=143
*8ba	*	*	*
4DDD\	.	8r	.
.	.	24A/LL 24f/ 24a/	.
.	.	24e/	.
.	.	24d/JJ	.
*X8ba	*	*	*
8ryy	.	24B-\LL 24c#X\	.
.	.	24A\	.
.	.	24G\JJ	.
8EE/ 8E/	.	8r	.
!!LO:LB:g=original
=144	=144	=144	=144
24FF/LL 24D/	.	2ryy	.
24GG/	.	.	.
24AA/JJ	.	.	.
24AA\LL 24E\	.	.	.
24BBn\	.	.	.
24C#X\JJ	.	.	.
24D/LL 24A/	.	.	.
24E/	.	.	.
24F/JJ	.	.	.
24F\LL 24d\	.	.	.
24G\	.	.	.
24A\JJ	.	.	.
=145	=145	=145	=145
4.r	.	24A\LL 24e\	.
.	.	24Bn\	.
.	.	24c#X\JJ	.
.	.	24c#/LL 24a/	.
.	.	24d/	.
.	.	24e/JJ	.
.	.	24f\LL 24dd\	.
.	.	24g\	.
.	.	24a\JJ	.
24D\LL	.	8a/ 8ff/	.
24AA\	.	.	.
24DD\JJ	.	.	.
=146	=146	=146	=146
4BBB-\ 4BB-\	.	8a/ 8ff/ 8aa/	.
.	.	24a/LL 24ff/ 24aa/	.
.	.	24ee/	.
.	.	24dd/JJ	.
24a>\LL	.	8rdd	.
24g>\	.	.	.
24f>\JJ	.	.	.
!LO:N:vis=4	!	!	!
8B->\	.	24g/LL 24ff/ 24gg#X/	.
.	.	24ee/	.
.	.	24dd/JJ	.
=147	=147	=147	=147
8ryy	.	24a/LL 24ff/ 24aa/	.
.	.	24ee/	.
.	.	24dd/JJ	.
24a>\LL	.	8dd/ 8ff/	.
24g>\	.	.	.
24f>\JJ	.	.	.
8e-X>\	.	24a/LL 24cc#X/	.
.	.	24g/	.
.	.	24f/JJ	.
24d>\LL	.	8b-/ 8dd/	.
24c>\	.	.	.
24B->\JJ	.	.	.
=148	=148	=148	=148
*^	*	*	*
8ryy	4FF\	.	24a/LL 24cc/	.
.	.	.	24g/	.
.	.	.	24f/JJ	.
24c>\LL 24f>\	.	.	8rdd	.
24B->\	.	.	.	.
24A>\JJ	.	.	.	.
8ryy	4FF#X\	.	24cc/LL 24dd/	.
.	.	.	24a/	.
.	.	.	24d/JJ	.
24e-X/LL	.	.	8r	.
24d/	.	.	.	.
24D/JJ	.	.	.	.
*v	*v	*	*	*
!!LO:PB:g=original
=149	=149	=149	=149
4GG\	.	8d/ 8b-/ 8dd/	.
.	.	24d/LL 24b-/ 24dd/	.
.	.	24a/	.
.	.	24g/JJ	.
24e-X>\LL	.	8rcc	.
24d>\	.	.	.
24B->\JJ	.	.	.
8G\	.	24e/LL 24b-/ 24cc#X/	.
.	.	24a/	.
.	.	24g/JJ	.
=150	=150	=150	=150
8r	.	24d/LL 24b-/ 24dd/	.
.	.	24a/	.
.	.	24g/JJ	.
24e-X>\LL	.	8g/ 8b-/	.
24d>\	.	.	.
24c>\JJ	.	.	.
8A>\	.	24e/LL 24f#X/	.
.	.	24d/	.
.	.	24c/JJ	.
24G\LL	.	8B-/ 8g/	.
24D\	.	.	.
24GG\JJ	.	.	.
=151	=151	=151	=151
4AAA\	.	8r	.
.	.	24g/LL 24b-/	.
.	.	24f/	.
.	.	24e/JJ	.
24c#X>\LL 24e>\	.	8rcc	.
24Bn>\	.	.	.
24A>\JJ	.	.	.
8rF>	.	24B-X/LL 24c#X/	.
.	.	24A/	.
.	.	24G/JJ	.
=152	=152	=152	=152
4DD\	.	24F</LL 24d</	.
.	.	24G</	.
.	.	24A</JJ	.
.	.	24A<\LL 24e<\	.
.	.	24Bn<\	.
.	.	24c#X<\JJ	.
4ryy	.	24d/LL 24f/	.
.	.	24c#X/	.
.	.	24d/JJ	.
.	.	24e-X\LL 24f#X\	.
.	.	24d\	.
.	.	24c#\JJ	.
!!LO:LB:g=original
=153	=153	=153	=153
4.ryy	.	24B-/LL 24g/	.
.	.	24c/	.
.	.	24d/JJ	.
.	.	24e-X\LL 24f#X\	.
.	.	24d\	.
.	.	24c\JJ	.
.	.	24d/LL 24g/	.
.	.	24c/	.
.	.	24B-/JJ	.
8BB-\	.	24f#X\LL 24g\	.
.	.	24e-\	.
.	.	24d\JJ	.
=154	=154	=154	=154
24AA\LL	.	8r	<
24C#X\	.	.	.
24E\	.	.	.
24A\	.	24c#X/LL 24a/	.
24Bn\	.	24d/	.
24c#X\JJ	.	24e/JJ	.
24A\LL	.	8r	.
24c#X\	.	.	.
24e\JJ	.	.	.
24a>\LL	.	24cc#X/LL 24aa/	.
24bn>\	.	24dd/	.
24cc#y>\JJ	.	24ff/JJ	.
=155	=155	=155	=155
*	*	*8va	*
24A>\LL	.	8r	.
24c#X>\	.	.	.
24e>\	.	.	.
24a>\	.	24ccc#X/LL	[ >
24bn>\	.	24ddd/	.
24cc#X>\JJ	.	24eee/JJ	.
*	*	*X8va	*
4ryy	.	24ggg/LL	.
.	.	24eee/	.
.	.	24ccc#/JJ	.
.	.	24bb-/LL	.
.	.	24aa/	.
.	.	24gg/JJ	.
=156	=156	=156	=156
8DD\	.	8ff/	.
!	!	!LO:TX:a:t=piu mosſo	!LO:DY:t=piano
4.ryy	.	24ff/LL 24aa/	] p
.	.	24ee/	.
.	.	24dd/JJ	.
.	.	24cc#X\LL 24ee\	.
.	.	24bn\	.
.	.	24a\JJ	.
.	.	24b-X/LL 24cc#/	.
.	.	24a/	.
.	.	24g/JJ	.
=157	=157	=157	=157
2ryy	.	24f/LL 24a/	.
!	!	!LO:TX:a:t=b.r.	!
.	.	24e/	.
.	.	24d/JJ	.
!	!	!LO:TX:a:t=b.r.	!
.	.	24f/LL 24a/	.
.	.	24e/	.
.	.	24d/JJ	.
.	.	24c#X\LL 24e\	.
.	.	24Bn\	.
.	.	24A\JJ	.
.	.	24B-X/LL 24c#/	.
.	.	24A/	.
.	.	24G/JJ	.
!!LO:LB:g=original
=158	=158	=158	=158
2ryy	.	24F</LL 24d</	.
.	.	24G</	.
.	.	24A</JJ	.
.	.	24A<\LL 24e<\	<
.	.	24Bn<\	.
.	.	24c#X<\JJ	.
.	.	24d/LL 24f/	.
.	.	24c#X/	.
.	.	24d/JJ	.
.	.	24f\LL 24a\	.
.	.	24e\	.
.	.	24f\JJ	.
=159	=159	=159	=159
8ryy	.	24b-/LL	.
.	.	24f/	.
.	.	24d/JJ	.
24BB-\LL	.	8r	.
24F\	.	.	.
24B-\JJ	.	.	.
4ryy	.	24d/LL	.
.	.	24f/	.
.	.	24b-/JJ	[ <
.	.	32dd\LL	.
.	.	32ff\	.
.	.	32bb-\	.
.	.	32ddd\JJ	.
=160	=160	=160	=160
2BBB-\	.	8fff/	.
.	.	24ddd/LL 24fff/	.
.	.	24ccc/	.
.	.	24bb-/JJ	.
.	.	24aa\LL 24ccc\	.
.	.	24gg\	.
.	.	24ff\JJ	.
.	.	24ee-X/LL 24gg-X/	.
.	.	24dd/	.
.	.	24cc/JJ	.
=161	=161	=161	=161
2ryy	.	24dd\LL 24ff\	.
.	.	24cc\	.
.	.	24b-\JJ	.
.	.	24dd/LL 24ff/	.
.	.	24cc/	.
.	.	24b-/JJ	.
.	.	24a\LL 24cc\	.
.	.	24g\	.
.	.	24f\JJ	.
.	.	24e-X/LL 24g-X/	.
.	.	24d/	.
.	.	24c/JJ	.
=162	=162	=162	=162
2ryy	.	24d/LL 24b-/	.
.	.	24e-X/	.
.	.	24f/JJ	.
.	.	24f\LL 24cc\	.
.	.	24g\	.
.	.	24a\JJ	.
.	.	24b-/LL 24dd/	.
.	.	24a/	.
.	.	24b-/JJ	.
.	.	24dd/LL 24ff/	.
.	.	24cc#X/	.
.	.	24dd/JJ	.
!!LO:LB:g=original
=163	=163	=163	=163
8ryy	.	24dd/LL 24gg/	<
.	.	24cc/	.
.	.	24b-/JJ	.
24GG\LL	.	8r	.
24D\	.	.	.
24G\JJ	.	.	.
4ryy	.	24B-/LL	.
.	.	24d/	.
.	.	24g/JJ	.
.	.	32dd/LL	.
.	.	32ff/	.
.	.	32bb-/	.
.	.	32ddd/JJ	.
=164	=164	=164	=164
2GG\	.	8ddd/	.
.	.	24bb-/LL 24ddd/	.
.	.	24aa/	.
.	.	24gg/JJ	.
.	.	24ff#X\LL 24aa\	[ f
.	.	24ee\	.
.	.	24dd\JJ	.
.	.	24ee-X/LL 24ff#/	.
.	.	24dd/	.
.	.	24cc/JJ	.
=165	=165	=165	=165
2ryy	.	24b-\LL 24dd\	.
.	.	24a\	.
.	.	24g\JJ	.
.	.	24b-/LL 24dd/	<
.	.	24a/	.
.	.	24g/JJ	.
.	.	24f#X\LL 24a\	.
.	.	24e\ 24g\	.
.	.	24d\JJ	.
.	.	24e-X/LL 24f#/	.
.	.	24d/	.
.	.	24c/JJ	.
=166	=166	=166	=166
2ryy	.	24B-/LL 24g/	.
.	.	24c/	.
.	.	24d/JJ	.
.	.	24d\LL 24a\	.
.	.	24en\	.
.	.	24f#X\JJ	.
.	.	24g/LL 24b-/	.
.	.	24f#/	.
.	.	24g/JJ	.
.	.	24b-\LL 24dd\	.
.	.	24a\	.
.	.	24b-\JJ	.
=167	=167	=167	=167
2ryy	.	24b-\LL 24gg\	.
.	.	24cc\	.
.	.	24dd\JJ	.
.	.	24dd/LL 24bb-/	[
.	.	24ee/	.
.	.	24ff#X/JJ	.
.	.	24b-\LL 24gg\	.
.	.	24cc\	.
.	.	24dd\JJ	.
.	.	24dd/LL 24bb-/	ff
.	.	24ee/	.
.	.	24ff#X/JJ	.
!!LO:LB:g=original
=168	=168	=168	=168
4r	.	24gg/LL 24bb-/	.
.	.	24ffn/	.
.	.	24ee/JJ	.
.	.	24gg/LL 24bb-/	.
.	.	24ff/	.
.	.	24ee/JJ	.
4GGG\ 4GG\	.	24gg/LL 24bb-/	.
.	.	24ff/	.
.	.	24ee/JJ	.
.	.	24gg/LL 24bb-/	.
.	.	24ff/	.
.	.	24ee/JJ	.
=169	=169	=169	=169
!LO:TX:t=P:problem:all\middle:global	!	!	!
8AAA\L 8AA\	.	24gg/LL 24aa/	.
.	.	24ff/	.
.	.	24ee/JJ	.
8G\ 8g\	.	24gg/LL 24aa/	.
.	.	24ff/	.
.	.	24ee/JJ	.
8F\ 8f\	.	24gg/LL 24aa#X/	.
.	.	24aa#/	.
.	.	24gg/JJ	.
8E\J 8e\	.	24gg/LL 24aa#/	.
.	.	24aa#/	.
.	.	24gg/JJ	.
=170	=170	=170	=170
8D\L 8d\	.	24aa/LL 24ddd/	.
.	.	24gg/	.
.	.	24ff/JJ	.
8DD\J 8D\	.	24ff/LL 24aa/	.
.	.	24ee/	.
.	.	24dd/JJ	.
8qDD\ 8qD\	.	.	.
4C^>\ 4c\	.	24ee-X/LL 24ff#X/	.
.	.	24dd/	.
.	.	24cc/JJ	.
.	.	24cc/LL 24dd/	.
.	.	24b-/	.
.	.	24a/JJ	.
=171	=171	=171	=171
8BB-\L 8B-\	.	24dd/LL 24gg/	.
.	.	24cc/	.
.	.	24b-/JJ	.
8AA\J 8A\	.	24b-/LL 24dd/	.
.	.	24a/	.
.	.	24g/JJ	.
8AA\L 8A\	.	24b-/LL 24cc#X/	.
.	.	24a/	.
.	.	24g/JJ	.
8AAA\J 8AA\	.	24g/LL 24a/	.
.	.	24f/	.
.	.	24e/JJ	.
=172	=172	=172	=172
4DD\ 4D\	.	24a/LL 24dd/	.
.	.	24g/	.
.	.	24f/JJ	.
.	.	24f/LL 24a/	.
.	.	24e/	.
.	.	24d/JJ	.
4C\	.	24e/LL 24f#X/	.
.	.	24d/	.
.	.	24c/JJ	.
.	.	24c/LL 24d/	.
.	.	24B-/	.
.	.	24A/JJ	.
!!LO:LB:g=original
=173	=173	=173	=173
!LO:TX:t=P:problem:all\left:global	!	!	!
12BB-\L	.	24d/LL 24g/	.
.	.	24c/	.
12AA\	.	24B-/JJ	.
.	.	24B-/LL 24d/	.
12GG\J	.	24A/	.
.	.	24G/JJ	.
4AA\	.	24B-/LL 24c#X/	.
.	.	24A/	.
.	.	24G/JJ	.
.	.	24G</LL 24A</	.
.	.	24F</	.
.	.	24E</JJ	.
=174	=174	=174	=174
8DD\	.	24F</LL 24A</	<
.	.	24E</ 24G</	.
.	.	24C</JJ 24A</	.
24E/LL 24c#X/	.	8a^>/	.
24F/	.	.	.
24G/JJ	.	.	.
8DD\ 8AA\	.	24F</LL 24d</	[
.	.	24G</	.
.	.	24A</JJ	.
24E/LL 24c#X/	.	8a^>/	.
24F/	.	.	f
24G/JJ	.	.	.
=175	=175	=175	=175
8DD\ 8AA\	.	24F</LL 24d</	.
.	.	24G</	.
.	.	24A</JJ	.
!	!	!	!LO:DY:rj
24E/LL 24c#X/	.	8a/	f
24F/	.	.	.
24G/JJ	.	.	.
8DD\ 8AA\	.	24F</LL 24d</	.
.	.	24G</	.
.	.	24A</JJ	.
24E/LL 24c#X/	.	8a/	.
24F/	.	.	.
24G/JJ	.	.	.
=176	=176	=176	=176
*8ba	*	*	*
2DDD\	.	8F</ 8d</	.
.	.	24fff/LL 24ggg/	.
.	.	24eee/	.
.	.	24ddd/JJ	.
.	.	24bb-/LL 24ccc#X/	fff
.	.	24aa/	.
.	.	24gg/JJ	.
.	.	8qqfff/	.
.	.	24ff/LL 24aa/	.
.	.	24ee/	.
.	.	24dd/JJ	.
*X8ba	*	*	*
=177	=177	=177	=177
*8ba	*	*	*
2DDD\	.	24ff/LL	.
.	.	24ee/	.
.	.	24dd/JJ	.
.	.	24ff/LL 24aa/	.
.	.	24ee/	.
.	.	24dd/JJ	.
.	.	24b-/LL 24cc#X/	.
.	.	24a/	.
.	.	24g/JJ	.
.	.	8qqdd/^>	.
.	.	24f/LL 24a/	.
.	.	24e/	.
.	.	24d/JJ	.
*X8ba	*	*	*
!!LO:PB:g=original
=178	=178	=178	=178
*^	*	*^	*
*8ba	*	*	*	*	*
2DDD\	4.ryy	.	24f/LL	4.ryy	.
.	.	.	24e/	.	.
.	.	.	24d/JJ	.	.
.	.	.	24f/LL 24a/	.	.
.	.	.	24e/	.	.
.	.	.	24d/JJ	.	.
.	.	.	24B-/LL 24c#X/	.	.
.	.	.	24A/	.	.
.	.	.	24G/JJ	.	.
*	*X8ba	*	*	*	*
.	24F/LL 24A/	.	8ree	8d/	.
.	24E/	.	.	.	.
.	24D/JJ	.	.	.	.
*X8ba	*	*	*	*	*
*v	*v	*	*	*	*
*	*	*v	*v	*
=179	=179	=179	=179
8ryy	.	24B-/LL 24c#X/	.
.	.	24A/	.
.	.	24G/JJ	.
24F/LL 24A/	.	8d^>/	.
24E/	.	.	.
24D/JJ	.	.	.
8ryy	.	24B-/LL 24c#/	.
.	.	24A/	.
.	.	24G/JJ	.
24F/LL 24A/	.	8B-/ 8d/	.
24E/	.	.	.
24D/JJ	.	.	.
=180	=180	=180	=180
*^	*	*	*
2A::/ 2c#X::/	2AAA::\ 2AA::\ 2E::\	.	2e::/ 2aa::/	.
*v	*v	*	*	*
=181	=181	=181	=181
*8ba	*	*	*
!	!	!	!LO:DY:rj
8qDDD\ 8qDD\	.	.	p
*X8ba	*	*	*
2F;>\ 2A\ 2d\ 2f\	.	2dd;>/ 2ff/ 2aa/ 2ddd/	f
==	==	==	==
*-	*-	*-	*-
!!!system-decoration: [{g1}]
!!!ENC: Filip Voros
!!!END: 2021-11-10
!!!EED: Jędrzej Mróz
!!!ESR: 2021-11-12
!!!RDF**kern: > = above
!!!RDF**kern: < = below
!!!RDF**dynam: < = "cres", fontstyle="italic"
